X:1
T:James Gibb editions
T:Schaffe in mir, Gott, SWV 291 - Schütz
T:#
%%score [ 1 2 ] 3
L:1/8
Q:1/4=120
M:none
K:C
V:1 treble nm="Soprano"
V:2 treble-8 nm="Tenor"
V:3 bass nm="Continuo"
V:1
"^Schaffe in mir, Gott, SWV 291""^Heinrich Schütz\n(1585-1672)""^Psalm 51: 10-12" d6 d2 B4 e4 | %1
w: Schaf- fe in mir,|
 c4 A4 d4 B4 | A8 z8 | z16 | z4 D4 E2 ^F2 G2 A2 | B4 c2 d2 A4 A4 | G8 z8 | A6 A2 F4 _B4 | %8
w: Gott, ein rei- nes|Herz,||und gieb mir ei- nen|neu- en, ge- wis- sen|Geist,|schaf- fe in mir,|
 A4 d6 d2 B4 | e4 c4 A4 d4- | d4 G4 ^F8 | z4 G6 G2 E4 | A4 F4 D4 G4- | G4 ^F4 G8 | z16 | %15
w: Gott, schaf- fe in|mir, Gott, ein rei\-|* nes Herz,|schaf- fe in|mir, Gott, ein rei\-|* nes Herz,||
 z4 D4 E2 ^F2 G2 A2 | B4 d2 e2 (A4 G4- | G4) ^F4 G8 | z16 | z8 z2 e2 c2 A2 | d3 d c4 z4 B4 | %21
w: und gieb mir ei- nen|neu- en, ge- wis\- *|* sen Geist.||von die- nem|An- ge- sicht, ver-|
 c4 d4 ^G4 z2 e2 | c2 B2 (ABcA Bc d4) ^c2 | d8 z8 | z16 | z4 d4 A2 AA A2 B2 | (c6 BA G4) A4- | %27
w: wirf mich nicht von|dei- nem An\- * * * * * * ge-|sicht,||und nimm dei- nen heil- gen|Geist * * * nicht|
 A4 G4 A8 | ^c2 cc d2 dA B2 =c4 B2 | (3c2 G2 G2 (3c3 B c2 (3:2:2A4 A2 (3d3 c d2 | B2 B2 c8 B4 | %31
w: * von mir.|Trö- ste mich wie- der mit dei- ner Hül-|fe, und der freu- di- ge Geist, der freu- di- ge|Geist en- thal- te|
 A8 z8 | z8 z4 G2 GG | A2 A2 ^F2 FF G2 GD E2 G2 | (E>F D4 ^C2) (3D2 D2 D2 (3A3 G A2 | %35
w: mich,|trö- ste mich|wie- der, trö- ste mich wie- der mit dei- ner|Hül\- * * * fe, und der freu- di- ge|
 (3:2:2^F4 F2 (3G3 F G2 (3D2 G2 G2 (3d3 c d2 | B4 G4 (^FG/A/ GA/B/ F/D/E/F/ G/A/B/c/ | %37
w: Geist, der freu- di- ge Geist, und der freu- di- ge|Geist en- thal\- * * * * * * * * * * * * *|
[Q:1/4=117] d4-[Q:1/4=114] d[Q:1/4=113]c/[Q:1/4=113]B/[Q:1/4=112] A/[Q:1/4=112]G/[Q:1/4=111]^F/[Q:1/4=110]E/[Q:1/4=109] F2[Q:1/4=106] G4)[Q:1/4=103] F2 | %38
w: * * * * * * * * * * te|
[Q:1/4=102] G16 |] %39
w: mich.|
V:2
 z16 | z16 | d6 d2 B4 e4 | c4 A4 d4 B4 | A8 z8 | z8 z4 ^F4 | G2 A2 B2 c2 d4 e2 f2 | e4 e4 d8 | %8
w: ||Schaf- fe in mir,|Gott, ein rei- nes|Herz,|und|gieb mir ei- nen neu- en, ge-|wis- sen Geist,|
 z8 G6 G2 | E4 A4 F4 D4 | G4 E4 D4 d4- | d2 d2 B4 e4 c4 | A4 d4 B8 | A4 z2 D2 E2 ^F2 G2 A2 | %14
w: schaf- fe|in mir, Gott, ein|rei- nes Herz, schaf\-|* fe in mir, Gott,|ein rei- nes|Herz, und gieb mir ei- nen|
 B4 c2 d2 A4 A4 | G8 z4 c4 | G2 A2 B2 c2 d4 e2 e2 | c4 d4 G8 | z4 B4 c4 d4 | %19
w: neu- en, ge- wis- sen|Geist, und|gieb mir ei- nen neu- en, ge-|wis- sen Geist.|Ver- wirf mich|
 ^G4 z2 e2 c2 B2 (AB c2- | c2) B2 c4 z4 E4 | A4 F4 E8 | z2 e2 c2 A2 d4 e4 | d4 z2 d2 A2 AA A2 B2 | %24
w: nicht von dei- nem An\- * *|* ge- sicht, ver-|wirf mich nicht|von dei- nem An- ge-|sicht, und nimm dei- nen heil- gen|
 c4 B4 A8 | G8 z4 d4 | A2 AA A2 B2 c4 F4 | (_B4- Bc/d/ GA/B/) A8 | z16 | z16 | %30
w: Geist nicht von|mir, und|nimm dei- nen heil- gen Geist nicht|von * * * * * * mir.|||
 z8 (3z2 A2 A2 (3e3 d e2 | (3:2:2^c4 A2 (3d3 =c d2 B2 d2 e4- | e4 d4 c8 | %33
w: und der freu- di- ge|Geist, der freu- di- ge Geist en- thal\-|* te mich,|
 ^c2 cc d2 d2 B2 BB =c2 cG | A2 _B2 A4 D4 (3z2 A2 A2 | (3d3 c d2 B4 G4 (^FG/A/ GF | %36
w: trö- ste mich wie- der, trö- ste mich wie- der mit|dei- ner Hül- fe, und der|freu- di- ge Geist en- thal\- * * * *|
 GAGA BcBc dABG d4- | dc/B/ !tenuto!A/G/^F/E/ D6 E/D/E/C/ D3) D | G16 |] %39
w: |* * * * * * * * * * * * * te|mich.|
V:3
 G,8 G,4 E,4 | F,6 E,2 D,4 G,4- | G,4 ^F,4 G,4 E,4 | A,2 G,2 F,2 E,2 D,4 G,,4 | D,8 C,4 B,,2 A,,2 | %5
w: ||2 * * *||* * 6 *|
 G,,4 A,,2 B,,2 C,4 D,4 | E,8 D,8 | A,8 D,4 G,,4 | D,8 G,6 G,2 | E,4 A,4 F,4 D,4 | G,4 E,4 D,8 | %11
w: ||||||
 G,6 G,2 E,4 A,4 | F,4 D,4 G,4 G,,4 | D,4- D,4 C,4 B,,2 A,,2 | G,,8 C,4 D,4 | G,,4 G,,4 C,8 | %16
w: ||4 * * * *|||
 G,,2 A,,2 B,,2 C,2 D,4 E,2 E,2 | C,4 D,4 G,,8 | E,8 A,4 F,4 | E,6 E,2 A,2 ^G,2 A,2 F,2 | %20
w: ||* * 6||
 G,4 C,4 E,8 | A,4 F,4 E,6 E,2 | A,2 ^G,2 A,2 F,2 =G,2 _B,2 A,4 | D,8 D,6 B,,2 | A,,4 G,,4 D,8 | %25
w: |* 6 * *|* * * * * * 4||* * 4|
 G,,8 D,8 | A,4 A,2 B,2 C4 F,4 | _B,4- B,4 A,8 | A,4 ^F,4 G,2 C,2 G,4 | C,4 C,4 F,4 D,4 | %30
w: ||7 6 *|* * * * 4~~~~~3||
 G,4 E,4 D,4 E,4 | A,4 ^F,4 G,4 C4 | F,4 G,4 C,8 | A,4 D,4 G,4 C2 CG, | A,2 _B,2 A,4 D,4 A,,4 | %35
w: * 6 * *||7 * *||* * 4 * *|
 D,4 B,,4 G,4 ^F,4 | G,4 E,4 D,8- |"^Kleine geistliche Konzerte. 1/10" D,4 D,6 E,2 D,4 | G,,16 |] %39
w: ||* * * 4||

